X:1
T:Title
%%score { ( 1 3 ) | ( 2 4 ) }
L:1/8
M:3/4
K:Ab
V:1 treble nm="Grand Piano"
V:3 treble 
V:2 bass 
V:4 bass 
V:1
 z2 z2[Q:1/4=84] [CE]>[_C=D] | [CE]3 [Ec] [FA][DF] | [DF]2 [CE]2 Ac | [Ge]3 [Gd] [DB][Ed] | %4
 [Ec]4 [CE]>[_C=D] | [CE]3 [Ec] [FA][DF] | [DF]2 [CE]2 [Ec][Ec] | [EB]3 [EG] [=DG][DF] | E4 EE | %9
 [Gd]3 [Gd] [Ad][Bd] | [Ad] [Ac]3 [Ec][Ec] | [=Ec]3 [EG] [FA][FB] | [=Ec]4 cc | f3 c de | %14
 [Fe] [Fd]3 [Fc][B,FB] | [CEA]3 [B,EG] [EGc][DGB] |[M:2/4] [CA]4 |[M:1/4] EE |[M:3/4] E4 z2 | %19
 .[A,CE]2 [CE]2 [CE][CE] | [DF]3 [DF] [FA][FB] |[M:2/4] [=Ec]4 |[M:1/4] cc |[M:3/4] f3 c de | %24
 [Fe] [Fd]3 [Fc][B,FB] | [CEA]3 [B,EG] [EGc]>[DGB] |[M:2/4] [CA]4 |] %27
V:2
 z2 z2 [A,,A,]>[A,,A,] | [A,,A,]3 [A,,A,] [D,A,][D,A,] | [A,,A,]2 [A,,A,]2 [A,CE][A,E] | %3
 [E,B,]3 [E,B,] [E,G,][E,G,] | [A,,A,]4 [A,,A,]>[A,,A,] | [A,,A,]3 [A,,A,] [D,A,][D,A,] | %6
 [A,,A,]2 [A,,A,]2 [A,,A,][A,,A,] | [B,,G,]3 [B,,B,] [B,,B,][B,,A,] | [E,G,]4 E,E, | %9
 [E,B,]3 [E,E] [F,E][G,E] | [A,E] [A,E]3 [A,,A,][A,,A,] | [C,G,]3 [C,C] [F,C][D,F,] | %12
 [C,G,]4[K:treble] [C=E][B,CE] | [=A,CF]3 [F,A,F] [F,A,F][K:bass][F,A,F] | %14
 [B,,B,] [B,,B,]3 [C,=A,]D, | E,3 E, E,E, |[M:2/4] A,4 |[M:1/4] E,E, |[M:3/4] .[G,B,]2 z2 z2 | %19
 z A [A,,A,]2 [A,,A,][A,,A,] | [D,A,]3 [D,A,] [D,F,][D,F,] |[M:2/4] [C,G,]4 | %22
[M:1/4][K:treble] [C=E][CE] |[M:3/4] [=A,CF]3 [F,A,F] [F,A,F][K:bass][F,A,F] | %24
 [B,,B,] [B,,B,]3 [C,=A,]D, | E,3 E, E,>E, |[M:2/4] A,4 |] %27
V:3
 x6 | x6 | x6 | x6 | x6 | x6 | x6 | x6 | x6 | x6 | x6 | x6 | x6 | x6 | x6 | x6 |[M:2/4] x4 | %17
[M:1/4] x2 |[M:3/4] z C D[=A,CE] [B,DE][G,B,E] | x6 | x6 |[M:2/4] x4 |[M:1/4] x2 |[M:3/4] x6 | x6 | %25
 x6 |[M:2/4] x4 |] %27
V:4
 x6 | x6 | x6 | x6 | x6 | x6 | x6 | x6 | x6 | x6 | x6 | x6 | x4[K:treble] x2 | x5[K:bass] x | x6 | %15
 x6 |[M:2/4] x4 |[M:1/4] x2 |[M:3/4] E,-[E,-A,] [E,B,]E, E,E, | A,,2 z2 z2 | x6 |[M:2/4] x4 | %22
[M:1/4][K:treble] x2 |[M:3/4] x5[K:bass] x | x6 | x6 |[M:2/4] x4 |] %27

